src/lib/packages/icons/src/assets/line/power-off-circle.svg

<svg width="24" height="24" viewBox="0 0 24 24" fill="none" xmlns="http://www.w3.org/2000/svg">
<path d="M12 1.25C6.072 1.25 1.25 6.072 1.25 12C1.25 17.928 6.072 22.75 12 22.75C17.928 22.75 22.75 17.928 22.75 12C22.75 6.072 17.928 1.25 12 1.25ZM12 21.25C6.899 21.25 2.75 17.101 2.75 12C2.75 6.899 6.899 2.75 12 2.75C17.101 2.75 21.25 6.899 21.25 12C21.25 17.101 17.101 21.25 12 21.25ZM11.25 10.9441V6.5C11.25 6.086 11.586 5.75 12 5.75C12.414 5.75 12.75 6.086 12.75 6.5V10.9441C12.75 11.3581 12.414 11.6941 12 11.6941C11.586 11.6941 11.25 11.3581 11.25 10.9441ZM15.668 8.38306C16.652 9.36806 17.1941 10.6719 17.1941 12.0559C17.1941 14.9199 14.864 17.25 12 17.25C9.136 17.25 6.80591 14.9199 6.80591 12.0559C6.80591 10.6719 7.34803 9.36806 8.33203 8.38306C8.62403 8.09106 9.09907 8.08906 9.39307 8.38306C9.68607 8.67506 9.68607 9.15109 9.39307 9.44409C8.69207 10.1451 8.30591 11.0729 8.30591 12.0559C8.30591 14.0929 9.963 15.75 12 15.75C14.037 15.75 15.6941 14.0929 15.6941 12.0559C15.6941 11.0729 15.3079 10.1451 14.6069 9.44409C14.3139 9.15109 14.3139 8.67606 14.6069 8.38306C14.9009 8.08906 15.376 8.09106 15.668 8.38306Z" fill="currentColor"/>
</svg>

<svg xmlns="http://www.w3.org/2000/svg" width="24" height="24" fill="none"><path fill="currentColor" d="M12 1.25C6.072 1.25 1.25 6.072 1.25 12S6.072 22.75 12 22.75 22.75 17.928 22.75 12 17.928 1.25 12 1.25Zm0 20c-5.101 0-9.25-4.149-9.25-9.25S6.899 2.75 12 2.75s9.25 4.149 9.25 9.25-4.149 9.25-9.25 9.25Zm-.75-10.306V6.5a.75.75 0 0 1 1.5 0v4.444a.75.75 0 0 1-1.5 0Zm4.418-2.56a5.165 5.165 0 0 1 1.526 3.672A5.2 5.2 0 0 1 12 17.25a5.2 5.2 0 0 1-5.194-5.194c0-1.384.542-2.688 1.526-3.673a.75.75 0 1 1 1.061 1.061 3.673 3.673 0 0 0-1.087 2.612A3.698 3.698 0 0 0 12 15.75a3.698 3.698 0 0 0 3.694-3.694c0-.983-.386-1.91-1.087-2.612a.75.75 0 1 1 1.061-1.06Z"/></svg>
